X: 32377
T: Pipe On The Hob, The
R: jig
M: 6/8
K: Dmixolydian
|:A|d^cd A2G|F2D DED|EDE cBc|E2D D2A|
dcB c2A|BAG A2G|EDE cBc|E2D D2:|
|:e|f2d d^cd|f2d d^cd|edB cBc|ede age|
[1 f2d d^cd|f2d d^cd|ede age|fd^c d2:|
[2 fef gfg|agf g2e|fed eag|fd^c d3||

